lib/healthicons/icons/solid/people/diabetes.svg

<svg fill="none" height="48" viewBox="0 0 48 48" width="48" xmlns="http://www.w3.org/2000/svg"><g fill="#333"><path d="m43 29.143c0 1.6-1.32 2.8571-3 2.8571s-3-1.2571-3-2.8571 3-5.1429 3-5.1429 3 3.6572 3 5.1429z"/><path d="m24.1528 17.7833h17.7191c1.1753 0 2.1281.9528 2.1281 2.1281s-.9528 2.1281-2.1281 2.1281h-.0034c.0859-.1674.1329-.3493.1327-.5394-.0007-.8284-.8966-1.4992-2.0012-1.4983s-1.9995.6732-1.9988 1.5016c.0002.1889.0469.3697.132.5361h-13.0221v1.064h6.8889c1.1046 0 2 .8955 2 2v.2562c0 1.1046-.8954 2-2 2h-6.8889v1.0641h5.7778c1.1046 0 2 .8954 2 2v.2561c0 1.1046-.8954 2-2 2h-8v1.064h4.1111c1.1046 0 2 .8955 2 2v.2562c0 1.1046-.8954 2-2 2h-11.5438c-6.32708 0-11.4562-5.1291-11.4562-11.4562 0-4.6546 2.8162-8.8465 7.1254-10.6061l12.887-5.2622c.974-.3977 2.0936-.0865 2.7226.7568.8793 1.1789.4465 2.8686-.8913 3.4795l-2.1063.9618c-.9774.4463-.6591 1.9096.4154 1.9096z"/></g></svg>

<svg width="48" height="48" viewBox="0 0 48 48" fill="none" xmlns="http://www.w3.org/2000/svg">
<path d="M43 29.143C43 30.743 41.68 32.0001 40 32.0001C38.32 32.0001 37 30.743 37 29.143C37 27.543 40 24.0001 40 24.0001C40 24.0001 43 27.6573 43 29.143Z" fill="#333333"/>
<path d="M24.1528 17.7833H41.8719C43.0472 17.7833 44 18.7361 44 19.9114C44 21.0867 43.0472 22.0395 41.8719 22.0395H41.8685C41.9544 21.8721 42.0014 21.6902 42.0012 21.5001C42.0005 20.6717 41.1046 20.0009 40 20.0018C38.8954 20.0027 38.0005 20.675 38.0012 21.5034C38.0014 21.6923 38.0481 21.8731 38.1332 22.0395H25.1111V23.1035H32C33.1046 23.1035 34 23.999 34 25.1035V25.3597C34 26.4643 33.1046 27.3597 32 27.3597H25.1111V28.4238H30.8889C31.9935 28.4238 32.8889 29.3192 32.8889 30.4238V30.6799C32.8889 31.7845 31.9935 32.6799 30.8889 32.6799H22.8889V33.7439H27C28.1046 33.7439 29 34.6394 29 35.7439V36.0001C29 37.1047 28.1046 38.0001 27 38.0001H15.4562C9.12912 38.0001 4 32.871 4 26.5439C4 21.8893 6.8162 17.6974 11.1254 15.9378L24.0124 10.6756C24.9864 10.2779 26.106 10.5891 26.735 11.4324C27.6143 12.6113 27.1815 14.301 25.8437 14.9119L23.7374 15.8737C22.76 16.32 23.0783 17.7833 24.1528 17.7833Z" fill="#333333"/>
</svg>
